icons/manuscript.svg

<?xml version="1.0" encoding="UTF-8"?>
<svg width="256px" height="316px" viewBox="0 0 256 316" version="1.1" xmlns="http://www.w3.org/2000/svg" xmlns:xlink="http://www.w3.org/1999/xlink" preserveAspectRatio="xMidYMid">
    <defs>
        <linearGradient x1="0%" y1="46.152%" x2="100%" y2="46.152%" id="linearGradient-1">
            <stop stop-color="#3933FF" offset="0%"></stop>
            <stop stop-color="#944DFF" offset="100%"></stop>
        </linearGradient>
    </defs>
    <g>
				<path d="M152.025864,195.8945 C152.769954,195.523547 153.544595,195.351162 154.301778,195.351162 C157.062116,195.351162 159.58897,197.62053 159.58897,200.638354 L159.580241,298.559419 L130.822543,314.436269 C129.09215,315.590592 126.718041,315.590592 124.795625,314.436269 L96.0161051,298.53978 L95.8764516,298.465589 L95.8764516,200.767097 C95.8764516,196.791337 99.9765894,194.29285 103.439558,196.025426 L125.105481,206.791833 C126.578387,207.559927 128.308781,207.559927 129.847152,206.791833 L152.025864,195.8945 Z M50.100672,110.376407 C50.100672,105.309606 54.2204486,101.728804 58.6828125,101.728804 C60.1208065,101.728804 61.5937139,102.099758 62.9749737,102.913676 L122.982311,136.64871 C125.557172,138.197991 128.895762,138.197991 131.472805,136.64871 L192.001661,103.437376 C197.915111,100.076965 204.875962,104.201106 204.875962,110.900107 L205.377842,273.989141 L179.651059,287.80174 L179.651059,160.062483 C179.651059,156.416219 177.272588,153.407123 174.195847,152.054231 C173.303374,151.661455 172.275612,151.465067 171.18457,151.465067 C170.879078,151.465067 170.551766,151.465067 170.224453,151.53053 C169.591647,151.53053 168.893381,151.661455 168.236573,151.988768 C167.911442,152.054231 167.60595,152.250618 167.278637,152.381544 L131.186952,170.121895 C129.986804,170.841982 128.56845,171.145292 127.215557,171.016549 C125.993589,171.016549 124.858905,170.77652 123.767862,170.121895 C123.7024,170.121895 123.571475,170.121895 123.506012,170.056432 L88.1780556,152.55611 C87.6107135,152.316081 87.0215506,152.054231 86.5196711,151.923305 C83.0501559,151.159575 79.4715365,152.621573 77.4858391,155.327358 C77.354914,155.458283 77.2894514,155.567387 77.2239889,155.698313 C76.9621387,156.091087 76.7657511,156.416219 76.5911842,156.854817 C76.3293341,157.378518 76.1984089,157.880397 76.0674838,158.535023 C75.9365587,159.104547 75.8710961,159.669707 75.8710961,160.324333 L75.8710961,287.76028 L50.253418,273.923679 L50.100672,273.836395 L50.100672,110.376407 Z M247.145132,0 L247.433167,0 C251.945719,0.0720088056 256.002215,3.62662531 256.002215,8.62578209 L256.002215,242.436192 C256.002215,245.163798 254.496576,247.673196 252.096282,248.982448 L230.493641,260.525677 L230.362715,260.591139 L230.362715,60.4284805 C230.362715,53.7294794 223.423685,49.6053387 217.750264,52.9439289 L131.732472,101.364396 C129.157612,102.651826 125.819022,102.651826 123.222341,101.364396 L37.9901002,52.9439289 C32.3144971,49.6053387 25.3776487,53.9913296 25.3776487,60.4284805 L25.3776487,260.460214 L3.90593219,248.982448 C1.50563866,247.673196 0,245.163798 0,242.436192 L0,8.62578209 C0,3.62880739 4.05867814,0.0720088056 8.57122996,0 L8.85926518,0 C10.2841667,0.0240029352 11.7483458,0.397139474 13.1361518,1.18487217 L123.636937,67.6511819 C126.211798,69.2004622 129.790417,69.2004622 132.365277,67.6511819 L242.866063,1.18487217 C244.253868,0.397139474 245.718048,0.0240029352 247.145132,0 Z" fill="url(#linearGradient-1)"></path>
				<path d="M174.335064,152.336156 C177.411804,153.682503 179.78373,156.695961 179.78373,160.348772 L179.78373,288.033477 L159.721641,298.799885 L159.721641,200.922461 C159.721641,197.077628 155.619321,194.448214 152.156352,196.178608 L129.979822,207.075941 C128.441452,207.844035 126.711058,207.844035 125.235969,207.075941 L103.570047,196.307351 C100.10926,194.576957 96.0069403,197.077628 96.0069403,201.051204 L96.0069403,298.799885 L76.0081311,288.033477 L76.0081311,160.606258 C76.0081311,159.964725 76.0735937,159.386472 76.2001546,158.810402 C76.3288976,158.168869 76.4576407,157.65608 76.7129446,157.143289 C76.9071501,156.695961 77.0969915,156.375195 77.3544776,155.988966 C77.417758,155.862406 77.4832206,155.733663 77.6119636,155.60492 C79.597661,152.914409 83.1871908,151.439319 86.6479777,152.207413 C87.1607676,152.336156 87.7390201,152.593642 88.3150906,152.848946 L123.634318,170.347085 C123.6976,170.412548 123.826343,170.412548 123.889623,170.412548 C124.980665,171.054082 126.132806,171.309385 127.35041,171.309385 C128.696756,171.438128 130.106383,171.117362 131.326168,170.412548 L167.413491,152.656923 C167.734257,152.52818 168.055023,152.336156 168.37579,152.272875 C169.015141,151.952109 169.719954,151.823366 170.361487,151.823366 C170.682254,151.760086 171.00302,151.760086 171.323787,151.760086 C172.412647,151.760086 173.438227,151.952109 174.335064,152.336156 Z M217.882935,53.2376375 C223.547627,49.8881369 230.501933,54.0100955 230.501933,60.7047324 L230.501933,260.812839 L205.519241,274.206477 L205.006451,111.182905 C205.006451,104.486086 198.052146,100.368492 192.127786,103.71581 L131.605475,136.938054 C129.030615,138.482971 125.683297,138.482971 123.108436,136.938054 L63.1010982,103.198656 C57.4342234,99.8513377 50.2246145,103.971114 50.2246145,110.667933 L50.2246145,274.206477 L25.4994092,260.812839 L25.4994092,60.7047324 C25.4994092,54.2675816 32.4537141,49.8881369 38.1184068,53.2376375 L123.365922,101.65374 C125.940783,102.94117 129.288101,102.94117 131.865143,101.65374 L217.882935,53.2376375 Z" fill="#FFFFFF"></path>
		</g>
</svg>

<svg xmlns="http://www.w3.org/2000/svg" viewBox="0 0 256.002 315.302">
  <defs>
    <linearGradient id="a" x1="0" x2="284.109" y1="131.122" y2="131.122" gradientTransform="scale(.90107 1.1098)" gradientUnits="userSpaceOnUse">
      <stop offset="0%" stop-color="#3933FF"/>
      <stop offset="100%" stop-color="#944DFF"/>
    </linearGradient>
  </defs>
  <path fill="url(#a)" d="M152.026 195.894a5.081 5.081 0 0 1 2.276-.543c2.76 0 5.287 2.27 5.287 5.287l-.009 97.921-28.758 15.877c-1.73 1.155-4.104 1.155-6.027 0l-28.78-15.896-.139-.074v-97.699c0-3.976 4.1-6.474 7.563-4.742l21.666 10.767c1.473.768 3.204.768 4.742 0zM50.1 110.376c0-5.066 4.12-8.647 8.582-8.647 1.438 0 2.91.37 4.292 1.185l60.007 33.735c2.575 1.549 5.914 1.549 8.49 0l60.53-33.212c5.913-3.36 12.874.764 12.874 7.463l.502 163.09-25.727 13.812v-127.74c0-3.646-2.378-6.655-5.455-8.008-.893-.393-1.92-.589-3.011-.589-.306 0-.633 0-.96.066-.633 0-1.332.13-1.988.458-.326.065-.631.262-.958.393l-36.092 17.74a6.572 6.572 0 0 1-3.971.895c-1.222 0-2.357-.24-3.448-.895-.066 0-.197 0-.262-.066l-35.328-17.5c-.567-.24-1.156-.502-1.658-.633-3.47-.763-7.048.699-9.034 3.404-.131.131-.197.24-.262.371-.262.393-.458.718-.633 1.157-.262.524-.393 1.025-.524 1.68a7.766 7.766 0 0 0-.196 1.79V287.76l-25.618-13.836-.152-.088zM247.145 0h.288c4.513.072 8.57 3.627 8.57 8.626v233.81a7.47 7.47 0 0 1-3.907 6.546l-21.602 11.544-.131.065V60.428c0-6.699-6.94-10.823-12.613-7.484l-86.018 48.42c-2.574 1.288-5.913 1.288-8.51 0L37.99 52.944c-5.676-3.339-12.612 1.047-12.612 7.484V260.46L3.906 248.982A7.47 7.47 0 0 1 0 242.436V8.626C0 3.629 4.059.072 8.571 0h.288a8.935 8.935 0 0 1 4.277 1.185l110.5 66.466c2.576 1.55 6.154 1.55 8.73 0l110.5-66.466A8.936 8.936 0 0 1 247.146 0z" style="fill:url(#a)"/>
  <path fill="#fff" d="M174.335 152.336c3.077 1.346 5.449 4.36 5.449 8.013v127.684L159.722 298.8v-97.878c0-3.844-4.103-6.474-7.566-4.743l-22.176 10.897c-1.539.768-3.269.768-4.744 0l-21.666-10.769c-3.46-1.73-7.563.77-7.563 4.744V298.8l-19.999-10.767V160.606c0-.641.066-1.22.192-1.796.129-.641.258-1.154.513-1.667.194-.447.384-.768.641-1.154.064-.127.13-.255.258-.384 1.986-2.69 5.575-4.166 9.036-3.398.513.13 1.091.387 1.667.642l35.32 17.498c.063.066.191.066.255.066 1.09.641 2.243.896 3.46.896 1.347.13 2.756-.192 3.976-.896l36.087-17.756c.321-.129.642-.32.963-.384.64-.32 1.344-.45 1.985-.45.321-.063.642-.063.963-.063 1.089 0 2.114.192 3.011.576zm43.548-99.098c5.665-3.35 12.619.772 12.619 7.467v200.108l-24.983 13.393-.513-163.023c0-6.697-6.954-10.815-12.878-7.467l-60.523 33.222c-2.574 1.545-5.922 1.545-8.497 0l-60.007-33.74c-5.667-3.347-12.876.773-12.876 7.47v163.538l-24.726-13.393V60.705c0-6.437 6.955-10.817 12.62-7.467l85.247 48.416c2.575 1.287 5.922 1.287 8.5 0z"/>
</svg>
